X:03b
T:Boston Boy, 2nd break "A" only
C:Ricky Skaggs & Kentucky Thunder, "Ancient Tones"
S:Jim Coon to CoMandoList TOW
M:4/4
L:1/8
Q:2/4=100
K:C
G,B,|C2CC CDEG|FFFF FED^F|G^FGA BGGB|!
cBcB AGEG,|C2CE EGGE|EFFE [A2D2]D^F|G^FGA BcdB|!
[e2c2][ec][ec] [ed]eeg|edc2 AAAc|AGF2 A_B=Bd|BDGB AG[BG]B|!
cBcB AcBA|cBcB cBAG|FEFG AGF2|G^FGA BGBd|!
[c2E2C2][cEC][cEC] [c4E4C4]|
